!!!COM: Robert Franz
!!!CNT: Deutscher
!!!TXO: Deutsche 
!!!OTL: "Willkommen, mein Wald!"
!!!OPS: Op. 21
!!!ONM: No. 1
!!!ONB: Original key: Eb Major
!!!LYR: O. Roquette
!!!ENC: Brian Bice
!!!YOR: Vocal Album, G. Schirmer, Inc., 1907
!!!ODT: 1865/
!!NB: Vocal melody and text only encoded.
**kern	**silbe
*clefG2	*
*k[b-e-a-d-g-]	*
*M6/8	*
=0	=0
4.r	.
4r	.
{8a-	{Will-
=1	=1
[4.dd-	-kom-
8dd-]	|
8f	-men,
8f	mein
=2	=2
[4.b-	Wald,
4b-]	|
8g-	gru2n
=3	=3
[4.e-	schat-
8e-]	|
8f	-ti-
8g-	-ges
=4	=4
[4.f	Haus!
4f]}	|}
{16a-	{durch
16a-	die
=5	=5
[4.cc	Wip-
8cc]	|
8b-	-fel
8a-	schon
=6	=6
4.dd-	hallt
(8f	mir
8cc)	|
8b-	dein
=7	=7
4.a-	gru2-
4gn	-ssend
8gn	Ge-
=8	=8
[4.f	-braus.
4f]}	|}
{8a-	{Wie
=9	=9
4.cc-	trink'
4f	ich
8a-	in
=10	=10
4.g-	Zu2-
4B-	gen
8c-	mich
=11	=11
4.d-	frisch
(fq	und
4e-)	|
8d-	ge-
=12	=12
[4.g-	-sund,
4g-]}	|}
{8b-	{hier
=13	=13
4.ee-	athm'
4b-	ich
8dd-	Ge-
=14	=14
4.ccn	-nu2-
4b-	-gen
8a-	aus
=15	=15
4.ff	Her-
4.ee-	-zens-
=16	=16
4.dd-}	-grund,}
{(4cc	{aus
8b-)	|
=17	=17
(4.a-	Her-
4.dd-	|
=18	=18
4.cc	|
dd-q	|
ccq	|
4b-)	|
8a-	-zens-
=19	=19
[4.dd-	-grund.
4dd-]}	|}
8r	.
=21	=21
4r	.
8r	.
4r	.
{8a-	{Zum
=22	=22
[4.dd-	gra-
8dd-]	|
8f	-si-
8f	-gen
=23	=23
[4.b-	Hang,
4b-]	|
8g-	auf-
=24	=24
[4.e-	-stei-
8e-]	|
8f	-gend
8g-	vom
=25	=25
[4.f	Thal,
4f]}	|}
{16a-	{dra2ngt
16a-	der
=26	=26
([4.cc	Glo-
8cc]	|
8b-)	|
8a-	-cken
=27	=27
4.dd-	Klang
(8f	und
8cc)	|
8b-	des
=28	=28
4.a-	A-
4.gn	-bends
=29	=29
[4.f	Strahl,
4f]}	|}
{16a-	{und
16a-	es
=30	=30
4.cc-	rauscht
4f	in
8a-	der
=31	=31
4.g-	Ei-
4b-	-che
8dd-	hoch-
=32	=32
4.dd-	-stre-
4cc-	-ben-
8cc-	-dem
=33	=33
[4.b-	Baum,
4b-]}	|}
{8b-	{im
=34	=34
4.ee-	gru2-
4b-	-nen
8dd-	Be-
=35	=35
4.ccn	-rei-
4b-	-che
8a-	ein
=36	=36
4.ff	Lie-
4.ee-	-des-
=37	=37
4.dd-}	-traum,}
{(4cc	{ein
8b-)	|
=38	=38
(4.a-	Lie-
4.dd-	|
=39	=39
4.cc	|
dd-q	|
ccq	|
4b-)	|
8a-	-des-
=40	=40
[4.dd-	-traum.
4dd-]}	|}
8r	.
=42	=42
4r	.
8r	.
4r	.
{8a-	{Den
=43	=43
[4.dd-	Blu-
8dd-]	|
8f	-men
8f	ge-
=44	=44
[4.b-	-sellt
4b-]	|
8g-	auf
=45	=45
[4.e-	Ra-
8e-]	|
8f	-sen
8g-	und
=46	=46
[4.f	Moos,
4f]}	|}
{8a-	{tief
=47	=47
[4.cc	schau'
8cc]	|
8b-	ich
8a-	die
=48	=48
4.dd-	Welt
4cc	und
8b-	den
=49	=49
4.a-	Him-
4gn	-mel
8b-	wie
=50	=50
(4.a-	gross!
4a-)}	|}
{16a-	{Und
16b-	ich
=51	=51
4.cc-	tra2u
4e-	-me
8f	im
=52	=52
4.g-	Schwei-
4f	-gen
8e-	der
=53	=53
4.d-	schat-
4c-	-ti-
8c-	-gen
=54	=54
[4.B-	Ruh'
4B-]}	|}
{8b-	{den
=55	=55
4.ee-	Him-
4b-	-mel
8dd-	mein
=56	=56
4.ccn	ei-
4b-	-gen,
8a-	die
=57	=57
4.ff	Er-
4ee-	-de
8ee-	da-
=58	=58
4.dd-}	-zu,}
{(4ccn	{die
8b-)	|
=59	=59
(4.a-	Er-
4.dd-	|
=60	=60
4.cc)	|
(dd-q	-de
ccq	|
4b-)	|
8a-	da-
=61	=61
[4.dd-	-zu!
4dd-]}	|}
8r	.
*-	*-
